icon-svg/bulb-candle.svg

<?xml version="1.0" encoding="UTF-8"?>
<svg width="32px" height="32px" viewBox="0 0 32 32" version="1.1" fill="#44739e" xmlns="http://www.w3.org/2000/svg" xmlns:xlink="http://www.w3.org/1999/xlink">
            <path d="M20.9687,16.446 C19.9217,16.738 18.2487,17 15.9997,17 C13.7507,17 12.0777,16.738 11.0307,16.446 C11.3497,11.207 14.1167,4 15.9997,4 C17.8827,4 20.6507,11.207 20.9687,16.446 Z M20.998,17.4694 C20.998,17.5124 21,17.5574 21,17.5994 C21,20.0734 20.239,21.8274 19.27,22.7874 C18.373,22.9144 17.279,22.9994 16,22.9994 C14.721,22.9994 13.627,22.9144 12.729,22.7874 C11.761,21.8274 11,20.0734 11,17.5994 C11,17.5574 11.002,17.5124 11.002,17.4694 C12.549,17.8664 14.62,17.9994 16,17.9994 C17.38,17.9994 19.451,17.8664 20.998,17.4694 Z M13.5,23.8903 C14.367,23.9693 15.322,23.9993 16,23.9993 C16.678,23.9993 17.633,23.9693 18.5,23.8903 L18.083,26.3753 C18.061,26.5503 17.973,26.7123 17.833,26.8343 L17.444,27.1733 C17.418,27.1973 17.393,27.2213 17.37,27.2463 L16.959,27.7143 C16.801,27.8943 16.56,27.9993 16.305,27.9993 L16,27.9993 L15.695,27.9993 C15.44,27.9993 15.199,27.8943 15.041,27.7143 L14.63,27.2463 C14.607,27.2213 14.582,27.1973 14.556,27.1733 L14.167,26.8343 C14.027,26.7123 13.939,26.5503 13.917,26.3753 L13.5,23.8903 Z"></path>

</svg>

<svg xmlns="http://www.w3.org/2000/svg" fill="#44739e" viewBox="0 0 24 24"><path d="M20.9687 16.446c-1.047.292-2.72.554-4.969.554s-3.922-.262-4.969-.554C11.3497 11.207 14.1167 4 15.9997 4s4.651 7.207 4.969 12.446m.0293 1.0234c0 .043.002.088.002.13 0 2.474-.761 4.228-1.73 5.188-.897.127-1.991.212-3.27.212s-2.373-.085-3.271-.212c-.968-.96-1.729-2.714-1.729-5.188 0-.042.002-.087.002-.13 1.547.397 3.618.53 4.998.53s3.451-.133 4.998-.53M13.5 23.8903c.867.079 1.822.109 2.5.109s1.633-.03 2.5-.109l-.417 2.485c-.022.175-.11.337-.25.459l-.389.339c-.026.024-.051.048-.074.073l-.411.468c-.158.18-.399.285-.654.285h-.61c-.255 0-.496-.105-.654-.285l-.411-.468a1.3 1.3 0 0 0-.074-.073l-.389-.339c-.14-.122-.228-.284-.25-.459z"/></svg>
